icons/circle/48/steam_icon_292600.svg

<?xml version="1.0" encoding="UTF-8" standalone="no"?>
<svg xmlns="http://www.w3.org/2000/svg" version="1.1"
     viewBox="0 0 48 48">
  <defs>
    <linearGradient id="background" gradientUnits="userSpaceOnUse"
                    x1="24" y1="1"
                    x2="24" y2="47">
      <stop offset="0" stop-color="#2A2A2A"/>
      <stop offset="1" stop-color="#202020"/>
    </linearGradient>
    <linearGradient id="blue-shadow"
                    x1="50%" y1="15%"
                    x2="50%" y2="75%">
      <stop offset="0" stop-opacity=".0" stop-color="#0AF"/>
      <stop offset="1" stop-opacity=".5" stop-color="#0AF"/>
    </linearGradient>
    <linearGradient id="blue-shadow-shadow"
                    x1="50%" y1="15%"
                    x2="50%" y2="75%">
      <stop offset="0" stop-opacity=".0"/>
      <stop offset="1" stop-opacity=".1"/>
    </linearGradient>
    <linearGradient id="red-shadow"
                    x1="50%" y1="25%"
                    x2="50%" y2="85%">
      <stop offset="0" stop-opacity=".5" stop-color="#E21"/>
      <stop offset="1" stop-opacity=".0" stop-color="#E21"/>
    </linearGradient>
    <linearGradient id="red-shadow-shadow"
                    x1="50%" y1="25%"
                    x2="50%" y2="85%">
      <stop offset="0" stop-opacity=".1"/>
      <stop offset="1" stop-opacity=".0"/>
    </linearGradient>
  </defs>
  <g>
    <path d="m 36.31 5 c 5.859 4.062 9.688 10.831 9.688 18.5 c 0 12.426 -10.07 22.5 -22.5 22.5 c -7.669 0 -14.438 -3.828 -18.5 -9.688 c 1.037 1.822 2.306 3.499 3.781 4.969 c 4.085 3.712 9.514 5.969 15.469 5.969 c 12.703 0 23 -10.298 23 -23 c 0 -5.954 -2.256 -11.384 -5.969 -15.469 c -1.469 -1.475 -3.147 -2.744 -4.969 -3.781 z m 4.969 3.781 c 3.854 4.113 6.219 9.637 6.219 15.719 c 0 12.703 -10.297 23 -23 23 c -6.081 0 -11.606 -2.364 -15.719 -6.219 c 4.16 4.144 9.883 6.719 16.219 6.719 c 12.703 0 23 -10.298 23 -23 c 0 -6.335 -2.575 -12.06 -6.719 -16.219 z" opacity="0.05"/>
    <path d="m 41.28 8.781 c 3.712 4.085 5.969 9.514 5.969 15.469 c 0 12.703 -10.297 23 -23 23 c -5.954 0 -11.384 -2.256 -15.469 -5.969 c 4.113 3.854 9.637 6.219 15.719 6.219 c 12.703 0 23 -10.298 23 -23 c 0 -6.081 -2.364 -11.606 -6.219 -15.719 z" opacity="0.1"/>
    <path d="m 31.25 2.375 c 8.615 3.154 14.75 11.417 14.75 21.13 c 0 12.426 -10.07 22.5 -22.5 22.5 c -9.708 0 -17.971 -6.135 -21.12 -14.75 a 23 23 0 0 0 44.875 -7 a 23 23 0 0 0 -16 -21.875 z" opacity="0.2"/>
    <circle cx="24" cy="24" r="23" fill="url(#background)"/>
    <path d="m 40.03 7.531 c 3.712 4.084 5.969 9.514 5.969 15.469 0 12.703 -10.297 23 -23 23 c -5.954 0 -11.384 -2.256 -15.469 -5.969 4.178 4.291 10.01 6.969 16.469 6.969 c 12.703 0 23 -10.298 23 -23 0 -6.462 -2.677 -12.291 -6.969 -16.469 z" opacity="0.1"/>
  </g>
  <g transform="translate(1 1)">
    <path d="m24,9 a15,15 0 0,0 0,30 a11,11 0 1,1 0,-22 a4,4 0 0,0 0,-8" fill="url(#red-shadow-shadow)"/>
    <path d="m24,39 a15,15 0 0,0 0,-30 a11,11 0 1,1 0,22 a4,4 0 0,0 0,8" fill="url(#blue-shadow-shadow)"/>
  </g>
  <g>
    <path d="m24,9 a15,15 0 0,0 0,30 a11,11 0 1,1 0,-22" fill="url(#red-shadow)"/>
    <path d="m24,39 a15,15 0 0,0 0,-30 a11,11 0 1,1 0,22" fill="url(#blue-shadow)"/>
    <circle cx="24" cy="13" r="4" fill="#E21"/>
    <circle cx="24" cy="35" r="4" fill="#0AF"/>
  </g>
</svg>

<svg xmlns="http://www.w3.org/2000/svg" viewBox="0 0 48 48">
  <defs>
    <linearGradient id="a" gradientUnits="userSpaceOnUse" x1="24" y1="1" x2="24" y2="47">
      <stop offset="0" stop-color="#2A2A2A"/>
      <stop offset="1" stop-color="#202020"/>
    </linearGradient>
    <linearGradient id="e" x1="50%" y1="15%" x2="50%" y2="75%">
      <stop offset="0" stop-opacity="0" stop-color="#0AF"/>
      <stop offset="1" stop-opacity=".5" stop-color="#0AF"/>
    </linearGradient>
    <linearGradient id="c" x1="50%" y1="15%" x2="50%" y2="75%">
      <stop offset="0" stop-opacity="0"/>
      <stop offset="1" stop-opacity=".1"/>
    </linearGradient>
    <linearGradient id="d" x1="50%" y1="25%" x2="50%" y2="85%">
      <stop offset="0" stop-opacity=".5" stop-color="#E21"/>
      <stop offset="1" stop-opacity="0" stop-color="#E21"/>
    </linearGradient>
    <linearGradient id="b" x1="50%" y1="25%" x2="50%" y2="85%">
      <stop offset="0" stop-opacity=".1"/>
      <stop offset="1" stop-opacity="0"/>
    </linearGradient>
  </defs>
  <path d="M36.31 5c5.859 4.062 9.688 10.831 9.688 18.5 0 12.426-10.07 22.5-22.5 22.5-7.669 0-14.438-3.828-18.5-9.688a23.24 23.24 0 0 0 3.781 4.969 22.923 22.923 0 0 0 15.469 5.969c12.703 0 23-10.298 23-23a22.92 22.92 0 0 0-5.969-15.469A23.216 23.216 0 0 0 36.31 5zm4.969 3.781A22.911 22.911 0 0 1 47.498 24.5c0 12.703-10.297 23-23 23a22.909 22.909 0 0 1-15.719-6.219C12.939 45.425 18.662 48 24.998 48c12.703 0 23-10.298 23-23 0-6.335-2.575-12.06-6.719-16.219z" opacity=".05"/>
  <path d="M41.28 8.781a22.923 22.923 0 0 1 5.969 15.469c0 12.703-10.297 23-23 23A22.92 22.92 0 0 1 8.78 41.281 22.911 22.911 0 0 0 24.499 47.5c12.703 0 23-10.298 23-23A22.909 22.909 0 0 0 41.28 8.781z" opacity=".1"/>
  <path d="M31.25 2.375C39.865 5.529 46 13.792 46 23.505c0 12.426-10.07 22.5-22.5 22.5-9.708 0-17.971-6.135-21.12-14.75a23 23 0 0 0 44.875-7 23 23 0 0 0-16-21.875z" opacity=".2"/>
  <circle cx="24" cy="24" r="23" fill="url(#a)"/>
  <path d="M40.03 7.531A22.922 22.922 0 0 1 45.999 23c0 12.703-10.297 23-23 23A22.92 22.92 0 0 1 7.53 40.031C11.708 44.322 17.54 47 23.999 47c12.703 0 23-10.298 23-23 0-6.462-2.677-12.291-6.969-16.469z" opacity=".1"/>
  <g>
    <path d="M24 9a15 15 0 0 0 0 30 11 11 0 1 1 0-22 4 4 0 0 0 0-8" fill="url(#b)" transform="translate(1 1)"/>
    <path d="M24 39a15 15 0 0 0 0-30 11 11 0 1 1 0 22 4 4 0 0 0 0 8" fill="url(#c)" transform="translate(1 1)"/>
  </g>
  <g>
    <path d="M24 9a15 15 0 0 0 0 30 11 11 0 1 1 0-22" fill="url(#d)"/>
    <path d="M24 39a15 15 0 0 0 0-30 11 11 0 1 1 0 22" fill="url(#e)"/>
    <circle cx="24" cy="13" r="4" fill="#E21"/>
    <circle cx="24" cy="35" r="4" fill="#0AF"/>
  </g>
</svg>
